svg/fluentui-system-icons/ic_fluent_table_28_regular.svg

<svg width="28" height="28" viewBox="0 0 28 28" fill="none" xmlns="http://www.w3.org/2000/svg">
<path d="M3 6.75C3 4.67893 4.67893 3 6.75 3H21.25C23.3211 3 25 4.67893 25 6.75V21.25C25 23.3211 23.3211 25 21.25 25H6.75C4.67893 25 3 23.3211 3 21.25V6.75ZM4.5 18.5V21.25C4.5 22.4926 5.50736 23.5 6.75 23.5H9.5V18.5H4.5ZM9.5 17V11H4.5V17H9.5ZM11 18.5V23.5H17V18.5L11 18.5ZM17 17V11L11 11V17L17 17ZM18.5 18.5V23.5H21.25C22.4926 23.5 23.5 22.4926 23.5 21.25V18.5H18.5ZM23.5 17V11H18.5V17H23.5ZM23.5 6.75C23.5 5.50736 22.4926 4.5 21.25 4.5H18.5V9.5H23.5V6.75ZM17 4.5H11V9.5L17 9.5V4.5ZM9.5 4.5H6.75C5.50736 4.5 4.5 5.50736 4.5 6.75V9.5H9.5V4.5Z" fill="#212121"/>
</svg>

<svg xmlns="http://www.w3.org/2000/svg" width="28" height="28"><path d="M3 6.75A3.75 3.75 0 0 1 6.75 3h14.5A3.75 3.75 0 0 1 25 6.75v14.5A3.75 3.75 0 0 1 21.25 25H6.75A3.75 3.75 0 0 1 3 21.25V6.75ZM4.5 18.5v2.75a2.25 2.25 0 0 0 2.25 2.25H9.5v-5h-5Zm5-1.5v-6h-5v6h5Zm1.5 1.5v5h6v-5h-6Zm6-1.5v-6h-6v6h6Zm1.5 1.5v5h2.75a2.25 2.25 0 0 0 2.25-2.25V18.5h-5Zm5-1.5v-6h-5v6h5Zm0-10.25a2.25 2.25 0 0 0-2.25-2.25H18.5v5h5V6.75ZM17 4.5h-6v5h6v-5Zm-7.5 0H6.75A2.25 2.25 0 0 0 4.5 6.75V9.5h5v-5Z"/></svg>
